packages/kaspersky-hexa-ui-icons/src/iconsSVGs/24/InstagramColor.svg

<svg width="24" height="24" viewBox="0 0 24 24" fill="none" xmlns="http://www.w3.org/2000/svg">
<path d="M12.0029 3C8.24552 3 7.14662 3.00388 6.93301 3.0216C6.16193 3.08571 5.68211 3.20716 5.15938 3.46749C4.75653 3.66758 4.43882 3.89952 4.12527 4.22466C3.55422 4.8176 3.20813 5.54708 3.08285 6.4142C3.02193 6.83516 3.00421 6.92101 3.00062 9.07122C2.99923 9.78796 3.00062 10.7312 3.00062 11.9965C3.00062 15.7519 3.00477 16.85 3.02276 17.0632C3.08506 17.8137 3.20273 18.2859 3.45192 18.8024C3.92813 19.7911 4.83765 20.5333 5.90915 20.8103C6.28015 20.9058 6.68992 20.9585 7.21598 20.9834C7.43886 20.9931 9.71058 21 11.9837 21C14.2568 21 16.5299 20.9972 16.7473 20.9862C17.3564 20.9575 17.7101 20.91 18.1012 20.8089C19.1796 20.5306 20.0725 19.7994 20.5584 18.7969C20.8027 18.2928 20.9266 17.8027 20.9827 17.0913C20.9949 16.9362 21 14.4635 21 11.9941C21 9.52431 20.9945 7.05616 20.9823 6.90107C20.9255 6.17824 20.8016 5.6922 20.5494 5.17846C20.3424 4.75792 20.1126 4.44386 19.779 4.12274C19.1836 3.55389 18.4554 3.20771 17.5877 3.08253C17.1673 3.02174 17.0835 3.00374 14.9322 3H12.0029Z" fill="url(#paint0_radial_8791_2222)"/>
<path d="M12.0029 3C8.24552 3 7.14662 3.00388 6.93301 3.0216C6.16193 3.08571 5.68211 3.20716 5.15938 3.46749C4.75653 3.66758 4.43882 3.89952 4.12527 4.22466C3.55422 4.8176 3.20813 5.54708 3.08285 6.4142C3.02193 6.83516 3.00421 6.92101 3.00062 9.07122C2.99923 9.78796 3.00062 10.7312 3.00062 11.9965C3.00062 15.7519 3.00477 16.85 3.02276 17.0632C3.08506 17.8137 3.20273 18.2859 3.45192 18.8024C3.92813 19.7911 4.83765 20.5333 5.90915 20.8103C6.28015 20.9058 6.68992 20.9585 7.21598 20.9834C7.43886 20.9931 9.71058 21 11.9837 21C14.2568 21 16.5299 20.9972 16.7473 20.9862C17.3564 20.9575 17.7101 20.91 18.1012 20.8089C19.1796 20.5306 20.0725 19.7994 20.5584 18.7969C20.8027 18.2928 20.9266 17.8027 20.9827 17.0913C20.9949 16.9362 21 14.4635 21 11.9941C21 9.52431 20.9945 7.05616 20.9823 6.90107C20.9255 6.17824 20.8016 5.6922 20.5494 5.17846C20.3424 4.75792 20.1126 4.44386 19.779 4.12274C19.1836 3.55389 18.4554 3.20771 17.5877 3.08253C17.1673 3.02174 17.0835 3.00374 14.9322 3H12.0029Z" fill="url(#paint1_radial_8791_2222)"/>
<path d="M12.0007 5C10.0996 5 9.86097 5.00831 9.11429 5.04229C8.36908 5.07642 7.8604 5.1944 7.41532 5.3675C6.95492 5.54629 6.56437 5.78546 6.17528 6.17469C5.7859 6.56377 5.54673 6.95431 5.36736 7.41456C5.19381 7.85979 5.07569 8.3686 5.04215 9.11352C5.00875 9.86019 5 10.0989 5 12C5 13.9011 5.00846 14.1389 5.04229 14.8856C5.07656 15.6308 5.19454 16.1395 5.3675 16.5846C5.54644 17.045 5.78561 17.4355 6.17485 17.8246C6.56379 18.214 6.95433 18.4537 7.41444 18.6325C7.85982 18.8056 8.36864 18.9236 9.11371 18.9577C9.86038 18.9917 10.0988 19 11.9998 19C13.901 19 14.1389 18.9917 14.8856 18.9577C15.6308 18.9236 16.14 18.8056 16.5854 18.6325C17.0457 18.4537 17.4356 18.214 17.8246 17.8246C18.214 17.4355 18.4531 17.045 18.6325 16.5847C18.8046 16.1395 18.9227 15.6307 18.9577 14.8857C18.9912 14.1391 19 13.9011 19 12C19 10.0989 18.9912 9.86033 18.9577 9.11367C18.9227 8.36846 18.8046 7.85979 18.6325 7.41471C18.4531 6.95431 18.214 6.56377 17.8246 6.17469C17.4352 5.78531 17.0458 5.54615 16.585 5.3675C16.1387 5.1944 15.6298 5.07642 14.8845 5.04229C14.1379 5.00831 13.9002 5 11.9985 5H12.0007ZM11.3727 6.26146C11.5591 6.26117 11.767 6.26146 12.0007 6.26146C13.8697 6.26146 14.0912 6.26817 14.8293 6.30171C15.5118 6.33292 15.8822 6.44696 16.1289 6.54277C16.4556 6.66965 16.6885 6.82131 16.9334 7.06631C17.1784 7.31131 17.33 7.54465 17.4572 7.87131C17.553 8.11777 17.6672 8.48819 17.6983 9.17069C17.7318 9.9086 17.7391 10.1303 17.7391 11.9984C17.7391 13.8665 17.7318 14.0882 17.6983 14.8261C17.6671 15.5086 17.553 15.879 17.4572 16.1255C17.3303 16.4521 17.1784 16.6847 16.9334 16.9296C16.6884 17.1746 16.4558 17.3263 16.1289 17.4531C15.8825 17.5494 15.5118 17.6631 14.8293 17.6944C14.0913 17.7279 13.8697 17.7352 12.0007 17.7352C10.1315 17.7352 9.90997 17.7279 9.17204 17.6944C8.48954 17.6629 8.11912 17.5488 7.87222 17.453C7.54555 17.3261 7.31221 17.1745 7.06721 16.9295C6.82221 16.6845 6.67054 16.4517 6.54337 16.1249C6.44756 15.8784 6.33337 15.508 6.30231 14.8255C6.26876 14.0876 6.26205 13.8659 6.26205 11.9966C6.26205 10.1274 6.26876 9.90685 6.30231 9.16894C6.33351 8.48644 6.44756 8.11602 6.54337 7.86927C6.67025 7.5426 6.82221 7.30927 7.06721 7.06427C7.31221 6.81927 7.54555 6.6676 7.87222 6.54044C8.11897 6.44419 8.48954 6.33044 9.17204 6.29908C9.8178 6.26992 10.0681 6.26117 11.3727 6.25971V6.26146ZM15.7372 7.42375C15.2735 7.42375 14.8972 7.79956 14.8972 8.26346C14.8972 8.72721 15.2735 9.10346 15.7372 9.10346C16.201 9.10346 16.5772 8.72721 16.5772 8.26346C16.5772 7.79971 16.201 7.42375 15.7372 7.42375ZM12.0007 8.40521C10.0154 8.40521 8.40583 10.0148 8.40583 12C8.40583 13.9852 10.0154 15.5941 12.0007 15.5941C13.9859 15.5941 15.5949 13.9852 15.5949 12C15.5949 10.0148 13.9859 8.40521 12.0007 8.40521ZM12.0007 9.66667C13.2893 9.66667 14.334 10.7113 14.334 12C14.334 13.2886 13.2893 14.3333 12.0007 14.3333C10.7119 14.3333 9.6673 13.2886 9.6673 12C9.6673 10.7113 10.7119 9.66667 12.0007 9.66667Z" fill="white"/>
<defs>
<radialGradient id="paint0_radial_8791_2222" cx="0" cy="0" r="1" gradientUnits="userSpaceOnUse" gradientTransform="translate(7.78127 22.3864) rotate(-90) scale(17.8393 16.592)">
<stop stop-color="#FFDD55"/>
<stop offset="0.1" stop-color="#FFDD55"/>
<stop offset="0.5" stop-color="#FF543E"/>
<stop offset="1" stop-color="#C837AB"/>
</radialGradient>
<radialGradient id="paint1_radial_8791_2222" cx="0" cy="0" r="1" gradientUnits="userSpaceOnUse" gradientTransform="translate(-0.0150952 4.29669) rotate(78.6806) scale(7.97425 32.8702)">
<stop stop-color="#3771C8"/>
<stop offset="0.128" stop-color="#3771C8"/>
<stop offset="1" stop-color="#6600FF" stop-opacity="0"/>
</radialGradient>
</defs>
</svg>

<svg xmlns="http://www.w3.org/2000/svg" width="24" height="24" fill="none" viewBox="0 0 24 24"><path fill="url(#a)" d="M12.0029 3c-3.7574 0-4.8563.0039-5.0699.0216-.771.0641-1.2509.1856-1.7736.4459-.4029.2-.7206.432-1.0341.7572-.571.5929-.9172 1.3224-1.0425 2.1895-.0609.421-.0786.5068-.0822 2.657-.0014.7168 0 1.66 0 2.9253 0 3.7554.0042 4.8535.0222 5.0667.0623.7505.18 1.2227.4291 1.7392.4762.9887 1.3857 1.7309 2.4573 2.0079.371.0955.7807.1482 1.3068.1731.2229.0097 2.4946.0166 4.7677.0166s4.5462-.0028 4.7636-.0138c.6091-.0287.9628-.0762 1.3539-.1773a3.769 3.769 0 0 0 2.4572-2.012c.2443-.5041.3682-.9942.4243-1.7056.0122-.1551.0173-2.6278.0173-5.0972 0-2.4698-.0055-4.938-.0177-5.093-.0568-.7229-.1807-1.2089-.4329-1.7226-.207-.4206-.4368-.7346-.7704-1.0558-.5954-.5688-1.3236-.915-2.1913-1.0402-.4204-.0608-.5042-.0788-2.6555-.0825z"/><path fill="url(#b)" d="M12.0029 3c-3.7574 0-4.8563.0039-5.0699.0216-.771.0641-1.2509.1856-1.7736.4459-.4029.2-.7206.432-1.0341.7572-.571.5929-.9172 1.3224-1.0425 2.1895-.0609.421-.0786.5068-.0822 2.657-.0014.7168 0 1.66 0 2.9253 0 3.7554.0042 4.8535.0222 5.0667.0623.7505.18 1.2227.4291 1.7392.4762.9887 1.3857 1.7309 2.4573 2.0079.371.0955.7807.1482 1.3068.1731.2229.0097 2.4946.0166 4.7677.0166s4.5462-.0028 4.7636-.0138c.6091-.0287.9628-.0762 1.3539-.1773a3.769 3.769 0 0 0 2.4572-2.012c.2443-.5041.3682-.9942.4243-1.7056.0122-.1551.0173-2.6278.0173-5.0972 0-2.4698-.0055-4.938-.0177-5.093-.0568-.7229-.1807-1.2089-.4329-1.7226-.207-.4206-.4368-.7346-.7704-1.0558-.5954-.5688-1.3236-.915-2.1913-1.0402-.4204-.0608-.5042-.0788-2.6555-.0825z"/><path fill="#fff" d="M12.0007 5c-1.9011 0-2.1397.0083-2.8864.0423-.7452.0341-1.2539.1521-1.699.3252-.4604.1788-.851.418-1.24.8072-.3894.389-.6286.7796-.808 1.2399-.1735.4452-.2916.954-.3251 1.699C5.0087 9.8601 5 10.0988 5 12s.0085 2.1389.0423 2.8856c.0343.7452.1522 1.2539.3252 1.699.179.4604.4181.8509.8074 1.24.3889.3894.7794.6291 1.2395.8079.4454.1731.9542.2911 1.6993.3252.7467.034.9851.0423 2.8861.0423 1.9012 0 2.1391-.0083 2.8858-.0423.7452-.0341 1.2544-.1521 1.6998-.3252.4603-.1788.8502-.4185 1.2392-.8079.3894-.3891.6285-.7796.8079-1.2399.1721-.4452.2902-.954.3252-1.699C18.9912 14.1391 19 13.9011 19 12s-.0088-2.1397-.0423-2.8863c-.035-.7452-.1531-1.254-.3252-1.699-.1794-.4604-.4185-.851-.8079-1.24-.3894-.3894-.7788-.6285-1.2396-.8072-.4463-.1731-.9552-.291-1.7005-.3252-.7466-.034-.9843-.0423-2.886-.0423zm-.628 1.2615c.1864-.0003.3943 0 .628 0 1.869 0 2.0905.0067 2.8286.0402.6825.0312 1.0529.1453 1.2996.241.3267.127.5596.2786.8045.5236s.3966.4783.5238.805c.0958.2465.21.6169.2411 1.2994.0335.7379.0408.9596.0408 2.8277s-.0073 2.0898-.0408 2.8277c-.0312.6825-.1453 1.0529-.2411 1.2994-.1269.3266-.2788.5592-.5238.8041s-.4776.3967-.8045.5235c-.2464.0963-.6171.21-1.2996.2413-.738.0335-.9596.0408-2.8286.0408-1.8692 0-2.0907-.0073-2.8287-.0408-.6825-.0315-1.0529-.1456-1.2998-.2414-.3266-.1269-.56-.2785-.805-.5235s-.3967-.4778-.5238-.8046c-.0958-.2465-.21-.6169-.241-1.2994-.0336-.7379-.0403-.9596-.0403-2.8289s.0067-2.0898.0402-2.8277c.0312-.6825.1453-1.0529.241-1.2996.127-.3267.279-.56.524-.805s.4783-.3967.805-.5239c.2467-.0962.6172-.21 1.2997-.2413.6458-.0292.8961-.038 2.2007-.0394zm4.3645 1.1623c-.4637 0-.84.3758-.84.8397 0 .4637.3763.84.84.84a.84.84 0 1 0 0-1.6797m-3.7365.9814c-1.9853 0-3.5949 1.6096-3.5949 3.5948s1.6096 3.5941 3.5949 3.5941S15.5949 13.9852 15.5949 12s-1.609-3.5948-3.5942-3.5948m0 1.2615c1.2886 0 2.3333 1.0446 2.3333 2.3333s-1.0447 2.3333-2.3333 2.3333c-1.2888 0-2.3334-1.0447-2.3334-2.3333s1.0446-2.3333 2.3334-2.3333"/><defs><radialGradient id="a" cx="0" cy="0" r="1" gradientTransform="matrix(0 -17.8393 16.592 0 7.781 22.386)" gradientUnits="userSpaceOnUse"><stop stop-color="#fd5"/><stop offset="0" stop-color="#fd5"/><stop offset="1" stop-color="#ff543e"/><stop offset="1" stop-color="#c837ab"/></radialGradient><radialGradient id="b" cx="0" cy="0" r="1" gradientTransform="rotate(78.68 -2.629 2.14)scale(7.97425 32.8702)" gradientUnits="userSpaceOnUse"><stop stop-color="#3771c8"/><stop offset="0" stop-color="#3771c8"/><stop offset="1" stop-color="#60f" stop-opacity="0"/></radialGradient></defs></svg>
